Email.svg

<?xml version="1.0" ?><svg viewBox="0 0 32 32" xmlns="http://www.w3.org/2000/svg"><title/><g data-name="mail email e-mail letter" id="mail_email_e-mail_letter"><path d="M28,13a1,1,0,0,0-1,1v8a1,1,0,0,1-1,1H6a1,1,0,0,1-1-1V14a1,1,0,0,0-2,0v8a3,3,0,0,0,.88,2.12A3,3,0,0,0,6,25H26a3,3,0,0,0,2.12-.88A3,3,0,0,0,29,22V14A1,1,0,0,0,28,13Z"/><path d="M15.4,18.8a1,1,0,0,0,1.2,0L28.41,9.94a1,1,0,0,0,.3-1.23,3.06,3.06,0,0,0-.59-.83A3,3,0,0,0,26,7H6a3,3,0,0,0-2.12.88,3.06,3.06,0,0,0-.59.83,1,1,0,0,0,.3,1.23ZM6,9H26a.9.9,0,0,1,.28,0L16,16.75,5.72,9A.9.9,0,0,1,6,9Z"/></g></svg>

<?xml version="1.0" encoding="utf-8"?>
<!-- Generator: Adobe Illustrator 25.2.0, SVG Export Plug-In . SVG Version: 6.00 Build 0)  -->
<svg version="1.1" id="Layer_1" xmlns="http://www.w3.org/2000/svg" xmlns:xlink="http://www.w3.org/1999/xlink" x="0px" y="0px"
	 viewBox="0 0 32 32" style="enable-background:new 0 0 32 32;" xml:space="preserve">
<style type="text/css">
	.st0{fill:#314455;}
</style>
<g id="mail_email_e-mail_letter">
	<path class="st0" d="M28,13c-0.6,0-1,0.4-1,1v8c0,0.6-0.4,1-1,1H6c-0.6,0-1-0.4-1-1v-8c0-0.6-0.4-1-1-1s-1,0.4-1,1v8
		c0,0.8,0.3,1.6,0.9,2.1C4.4,24.7,5.2,25,6,25h20c0.8,0,1.6-0.3,2.1-0.9c0.6-0.6,0.9-1.3,0.9-2.1v-8C29,13.4,28.6,13,28,13z"/>
	<path class="st0" d="M15.4,18.8c0.4,0.3,0.8,0.3,1.2,0l11.8-8.9c0.4-0.3,0.5-0.8,0.3-1.2c-0.1-0.3-0.3-0.6-0.6-0.8
		C27.6,7.3,26.8,7,26,7H6C5.2,7,4.4,7.3,3.9,7.9C3.6,8.1,3.4,8.4,3.3,8.7C3.1,9.1,3.2,9.7,3.6,9.9L15.4,18.8z M6,9h20
		c0.1,0,0.2,0,0.3,0L16,16.8L5.7,9C5.8,9,5.9,9,6,9z"/>
</g>
</svg>
